svgs/duotone/square-arrow-up.svg

<svg xmlns="http://www.w3.org/2000/svg" viewBox="0 0 448 512"><!-- Font Awesome Pro 6.0.0-alpha2 by @fontawesome - https://fontawesome.com License - https://fontawesome.com/license (Commercial License) --><defs><style>.fa-secondary{opacity:.4}</style></defs><path d="M384 32H64C28.656 32 0 60.656 0 96V416C0 451.344 28.656 480 64 480H384C419.344 480 448 451.344 448 416V96C448 60.656 419.344 32 384 32ZM350.625 254.625C338.125 267.125 317.875 267.125 305.375 254.625L256 205.25V384C256 401.688 241.672 416 224 416S192 401.688 192 384V205.25L142.625 254.625C130.125 267.125 109.875 267.125 97.375 254.625S84.875 221.875 97.375 209.375L201.354 105.398C209.336 97.398 219.1 96 224 96C228.881 96 238.654 97.391 246.646 105.398L350.625 209.375C363.125 221.875 363.125 242.125 350.625 254.625Z" class="fa-secondary"/><path d="M350.509 254.625C338.009 267.125 317.759 267.125 305.259 254.625L255.884 205.25V384C255.884 401.688 241.556 416 223.884 416S191.884 401.688 191.884 384V205.25L142.509 254.625C130.009 267.125 109.759 267.125 97.259 254.625S84.759 221.875 97.259 209.375L201.238 105.398C209.22 97.398 218.984 96 223.884 96C228.765 96 238.539 97.391 246.531 105.398L350.509 209.375C363.009 221.875 363.009 242.125 350.509 254.625Z" class="fa-primary"/></svg>

<svg xmlns="http://www.w3.org/2000/svg" viewBox="0 0 448 512"><!--! Font Awesome Pro 6.3.0 by @fontawesome - https://fontawesome.com License - https://fontawesome.com/license (Commercial License) Copyright 2023 Fonticons, Inc. --><defs><style>.fa-secondary{opacity:.4}</style></defs><path class="fa-primary" d="M350.6 254.6c-12.5 12.5-32.75 12.5-45.25 0L256 205.3V384c0 17.69-14.33 32-32 32s-32-14.31-32-32V205.3L142.6 254.6c-12.5 12.5-32.75 12.5-45.25 0s-12.5-32.75 0-45.25l103.1-103.1C209.3 97.4 219.1 96 224 96c4.881 0 14.65 1.391 22.65 9.398l103.1 103.1C363.1 221.9 363.1 242.1 350.6 254.6z"/><path class="fa-secondary" d="M384 32H64C28.66 32 0 60.66 0 96v320c0 35.34 28.66 64 64 64h320c35.34 0 64-28.66 64-64V96C448 60.66 419.3 32 384 32zM350.6 254.6c-12.5 12.5-32.75 12.5-45.25 0L256 205.3V384c0 17.69-14.33 32-32 32s-32-14.31-32-32V205.3L142.6 254.6c-12.5 12.5-32.75 12.5-45.25 0s-12.5-32.75 0-45.25l103.1-103.1C209.3 97.4 219.1 96 224 96c4.881 0 14.65 1.391 22.65 9.398l103.1 103.1C363.1 221.9 363.1 242.1 350.6 254.6z"/></svg>
